packages/ui-icons/svg/Solid/quiz.svg

<svg viewBox="0 0 1920 1920" version="1.1" xmlns="http://www.w3.org/2000/svg">
    <path d="M1647.6075,931.312961 L1644.94274,1638.92722 L1408.38494,1875.60614 L1408.26382,1875.60614 L1055.78906,1523.13139 L1647.6075,931.312961 Z M792.789603,1438.70703 L878.425222,1524.46377 L614.129721,1788.63815 L528.494102,1703.00253 L792.789603,1438.70703 Z M616.624903,1262.66345 L702.260521,1348.29907 L349.906895,1700.53157 L264.271276,1614.89595 L616.624903,1262.66345 Z M440.532877,1086.41396 L526.04737,1172.17071 L85.6356184,1612.46133 L0,1526.94684 L440.532877,1086.41396 Z M1033.44144,317.280141 L441.744131,908.977447 L89.2693787,556.744946 L325.948301,320.066024 L1033.44144,317.280141 Z M1630.9891,276.109636 L1686.94901,278.168767 L1689.25039,334.249801 C1691.55177,389.240708 1675.9266,473.180571 1588.35298,560.63307 L1545.59573,603.511442 L1361.48521,419.279793 L1404.24245,376.401421 C1490.84707,289.917925 1576.48269,274.292756 1630.9891,276.109636 Z M1890.43959,74.0725619 C1817.15875,46.4559834 1549.22949,-27.3093513 1274.88059,247.039554 L570.173333,951.746806 L791.590462,1173.28506 L1013.00759,1394.70219 L1717.71484,689.873812 C1990.73137,416.857286 1917.57166,146.868894 1890.43959,74.0725619" stroke="none" stroke-width="1" fill-rule="evenodd"/>
</svg>

<svg viewBox="0 0 1920 1920" xmlns="http://www.w3.org/2000/svg">
    <path d="m1647.608 931.313-2.665 707.614-236.558 236.68h-.121l-352.475-352.476 591.819-591.818ZM792.79 1438.707l85.635 85.757-264.295 264.174-85.636-85.635 264.296-264.296Zm-176.165-176.044 85.636 85.636-352.354 352.233-85.636-85.636 352.354-352.233Zm-176.092-176.249 85.514 85.757-440.411 440.29L0 1526.947l440.533-440.533ZM1033.44 317.28 441.744 908.977 89.27 556.745l236.68-236.679 707.492-2.786Zm597.548-41.17 55.96 2.059 2.301 56.08c2.302 54.992-13.323 138.932-100.897 226.384l-42.757 42.878-184.11-184.231 42.756-42.879c86.605-86.483 172.24-102.108 226.747-100.291Zm259.45-202.037c-73.28-27.617-341.21-101.382-615.558 172.967L570.173 951.747l221.417 221.538 221.418 221.417 704.707-704.828c273.016-273.017 199.857-543.005 172.725-615.801" fill-rule="evenodd"/>
</svg>
